icons/linear-ele-symbol-female-woman.svg

<svg xmlns="http://www.w3.org/2000/svg" width="32px" height="32px" viewBox="0 0 32 32" version="1.1">
    <title>linear-ele-symbol-female-woman</title>
    <g id="linear-ele-symbol-female-woman" stroke-width="1" fill-rule="evenodd">
        <path d="M16,2 C21.5228475,2 26,6.4771525 26,12 C26,17.1849719 22.0538953,21.4482817 17.0010997,21.9505155 L17.001,25 L21,25 C21.5522847,25 22,25.4477153 22,26 C22,26.5522847 21.5522847,27 21,27 L17,27 L17,29 C17,29.5522847 16.5522847,30 16,30 C15.4477153,30 15,29.5522847 15,29 L15,27 L11,27 C10.4477153,27 10,26.5522847 10,26 C10,25.4477153 10.4477153,25 11,25 L14.999,25 L14.9998991,21.9506147 C9.94662476,21.4488436 6,17.1853136 6,12 C6,6.4771525 10.4771525,2 16,2 Z M16,4 C11.581722,4 8,7.581722 8,12 C8,16.418278 11.581722,20 16,20 C20.418278,20 24,16.418278 24,12 C24,7.581722 20.418278,4 16,4 Z" id="&#24418;&#29366;" fill-rule="nonzero" />
    </g>
</svg>

<svg xmlns="http://www.w3.org/2000/svg" viewBox="0 0 32 32"><path fill="currentColor" d="M16 2c5.523 0 10 4.477 10 10 0 5.185-3.946 9.448-8.999 9.95V25H21a1 1 0 0 1 0 2h-4v2a1 1 0 0 1-2 0v-2h-4a1 1 0 0 1 0-2h3.999v-3.05C9.948 21.45 6 17.186 6 12 6 6.477 10.477 2 16 2m0 2a8 8 0 1 0 0 16 8 8 0 0 0 0-16"/></svg>
